svg/fluentui-system-icons/ic_fluent_mountain_location_top_28_regular.svg

<svg width="28" height="28" viewBox="0 0 28 28" fill="none" xmlns="http://www.w3.org/2000/svg">
<path d="M15.6116 8.62281C15.2773 9.06452 14.9498 9.456 14.6783 9.76563C14.3141 10.1809 13.6859 10.1809 13.3217 9.76563C13.0502 9.456 12.7227 9.06452 12.3884 8.62281C12.3703 8.59891 12.3522 8.57486 12.3341 8.55066C12.0571 8.18092 11.7773 7.77799 11.5226 7.35977C10.9475 6.41582 10.5 5.39398 10.5 4.5C10.5 2.567 12.067 1 14 1C15.933 1 17.5 2.567 17.5 4.5C17.5 5.39397 17.0525 6.41582 16.4774 7.35977C16.4752 7.36342 16.473 7.36706 16.4708 7.3707C16.2011 7.81236 15.9038 8.23677 15.6116 8.62281ZM14.7168 6.09692C15.3259 5.8231 15.75 5.21108 15.75 4.5C15.75 3.5335 14.9665 2.75 14 2.75C13.0335 2.75 12.25 3.5335 12.25 4.5C12.25 5.21108 12.6741 5.8231 13.2832 6.09692C13.5019 6.19528 13.7446 6.25 14 6.25C14.2416 6.25 14.4718 6.20103 14.6812 6.11248C14.6931 6.10742 14.705 6.10224 14.7168 6.09692ZM7.64643 13.54L11.6862 9.35099C11.393 8.96996 11.0898 8.54734 10.8067 8.10205L4.05069 15.1078C3.37665 15.8067 3 16.7399 3 17.7109V22.2497C3 23.7685 4.23122 24.9997 5.75 24.9997H22.25C23.7688 24.9997 25 23.7684 25 22.2497V17.7109C25 16.7399 24.6234 15.8067 23.9493 15.1078L17.1933 8.10205C16.9102 8.54734 16.607 8.96996 16.3138 9.35099L19.0195 12.1567C17.3147 12.2879 15.7953 12.9016 14.4401 13.449C14.1335 13.5729 13.8353 13.6933 13.5453 13.804C12.4691 14.2148 11.4976 14.5059 10.5239 14.5054C9.6337 14.505 8.69449 14.26 7.64643 13.54ZM6.59322 14.6322C7.9496 15.6197 9.2475 16.0049 10.5232 16.0054C11.7839 16.006 12.9688 15.6296 14.0802 15.2054C14.412 15.0788 14.7376 14.9486 15.0594 14.82C16.8506 14.1041 18.5242 13.4352 20.4887 13.6801L22.8696 16.149C23.274 16.5684 23.5 17.1283 23.5 17.7109V22.2497C23.5 22.94 22.9404 23.4997 22.25 23.4997H5.75C5.05964 23.4997 4.5 22.94 4.5 22.2497V17.7109C4.5 17.1283 4.72599 16.5684 5.13041 16.149L6.59322 14.6322Z" fill="#212121"/>
</svg>

<svg xmlns="http://www.w3.org/2000/svg" width="28" height="28"><path d="M15.612 8.623a20.69 20.69 0 0 1-.934 1.143.894.894 0 0 1-1.356 0 20.69 20.69 0 0 1-.988-1.215c-.277-.37-.557-.773-.811-1.191-.575-.944-1.023-1.966-1.023-2.86a3.5 3.5 0 1 1 7 0c0 .894-.448 1.916-1.023 2.86l-.006.01c-.27.442-.567.867-.86 1.253Zm-.895-2.526a1.75 1.75 0 1 0-1.434-3.193 1.75 1.75 0 0 0 1.434 3.193Zm-7.07 7.443 4.04-4.189a17.186 17.186 0 0 1-.88-1.249L4.05 15.108A3.75 3.75 0 0 0 3 17.71v4.539A2.75 2.75 0 0 0 5.75 25h16.5A2.75 2.75 0 0 0 25 22.25v-4.54a3.75 3.75 0 0 0-1.05-2.602l-6.757-7.006a16.97 16.97 0 0 1-.88 1.249l2.707 2.806c-1.705.13-3.225.745-4.58 1.292-.306.124-.605.244-.895.355-1.076.41-2.047.702-3.021.701-.89 0-1.83-.245-2.878-.965Zm-1.054 1.092c1.357.988 2.655 1.373 3.93 1.373 1.26.001 2.446-.375 3.557-.8.332-.126.658-.256.98-.385 1.79-.716 3.464-1.385 5.429-1.14l2.38 2.469c.405.42.631.98.631 1.562v4.539c0 .69-.56 1.25-1.25 1.25H5.75c-.69 0-1.25-.56-1.25-1.25v-4.54c0-.582.226-1.142.63-1.561l1.463-1.517Z"/></svg>
